static/img/kroki/fc50faa8be7168bb1e026feb33947dce.svg

<?xml version="1.0" encoding="us-ascii" standalone="no"?><svg xmlns="http://www.w3.org/2000/svg" xmlns:xlink="http://www.w3.org/1999/xlink" contentStyleType="text/css" height="352px" preserveAspectRatio="none" style="width:726px;height:352px;" version="1.1" viewBox="0 0 726 352" width="726px" zoomAndPan="magnify"><defs/><g><!--class gcp_disk--><g id="elem_gcp_disk"><rect codeLine="22" fill="#3D176E" height="39.7891" id="gcp_disk" rx="2.5" ry="2.5" style="stroke:#000D19;stroke-width:0.5;" width="112" x="340.84" y="306.37"/><ellipse cx="355.84" cy="326.2645" fill="#ADD1B2" rx="11" ry="11" style="stroke:#181818;stroke-width:1.0;"/><path d="M358.8088,331.9052 Q358.2306,332.202 357.59,332.3427 Q356.9494,332.4989 356.2463,332.4989 Q353.7463,332.4989 352.4181,330.8583 Q351.1056,329.202 351.1056,326.077 Q351.1056,322.952 352.4181,321.2958 Q353.7463,319.6395 356.2463,319.6395 Q356.9494,319.6395 357.59,319.7958 Q358.2463,319.952 358.8088,320.2489 L358.8088,322.9677 Q358.1838,322.3895 357.59,322.1239 Q356.9963,321.8427 356.3713,321.8427 Q355.0275,321.8427 354.34,322.9208 Q353.6525,323.9833 353.6525,326.077 Q353.6525,328.1708 354.34,329.2489 Q355.0275,330.3114 356.3713,330.3114 Q356.9963,330.3114 357.59,330.0458 Q358.1838,329.7645 358.8088,329.1864 L358.8088,331.9052 Z " fill="#000000"/><text fill="#D9B8FF" font-family="Helvetica" font-size="17" lengthAdjust="spacing" textLength="70" x="374.84" y="332.1498">gcp_disk</text></g><!--class gcp_instance--><g id="elem_gcp_instance"><rect codeLine="24" fill="#3D176E" height="39.7891" id="gcp_instance" rx="2.5" ry="2.5" style="stroke:#000D19;stroke-width:0.5;" width="149" x="322.34" y="206.58"/><ellipse cx="337.34" cy="226.4745" fill="#ADD1B2" rx="11" ry="11" style="stroke:#181818;stroke-width:1.0;"/><path d="M340.3088,232.1152 Q339.7306,232.412 339.09,232.5527 Q338.4494,232.7089 337.7463,232.7089 Q335.2463,232.7089 333.9181,231.0683 Q332.6056,229.412 332.6056,226.287 Q332.6056,223.162 333.9181,221.5058 Q335.2463,219.8495 337.7463,219.8495 Q338.4494,219.8495 339.09,220.0058 Q339.7463,220.162 340.3088,220.4589 L340.3088,223.1777 Q339.6838,222.5995 339.09,222.3339 Q338.4963,222.0527 337.8713,222.0527 Q336.5275,222.0527 335.84,223.1308 Q335.1525,224.1933 335.1525,226.287 Q335.1525,228.3808 335.84,229.4589 Q336.5275,230.5214 337.8713,230.5214 Q338.4963,230.5214 339.09,230.2558 Q339.6838,229.9745 340.3088,229.3964 L340.3088,232.1152 Z " fill="#000000"/><text fill="#D9B8FF" font-family="Helvetica" font-size="17" lengthAdjust="spacing" textLength="107" x="356.34" y="232.3598">gcp_instance</text></g><!--class gcp_machine_type--><g id="elem_gcp_machine_type"><rect codeLine="26" fill="#3D176E" height="39.7891" id="gcp_machine_type" rx="2.5" ry="2.5" style="stroke:#000D19;stroke-width:0.5;" width="197" x="298.34" y="106.79"/><ellipse cx="313.34" cy="126.6845" fill="#ADD1B2" rx="11" ry="11" style="stroke:#181818;stroke-width:1.0;"/><path d="M316.3088,132.3252 Q315.7306,132.622 315.09,132.7627 Q314.4494,132.9189 313.7463,132.9189 Q311.2463,132.9189 309.9181,131.2783 Q308.6056,129.622 308.6056,126.497 Q308.6056,123.372 309.9181,121.7158 Q311.2463,120.0595 313.7463,120.0595 Q314.4494,120.0595 315.09,120.2158 Q315.7463,120.372 316.3088,120.6689 L316.3088,123.3877 Q315.6838,122.8095 315.09,122.5439 Q314.4963,122.2627 313.8713,122.2627 Q312.5275,122.2627 311.84,123.3408 Q311.1525,124.4033 311.1525,126.497 Q311.1525,128.5908 311.84,129.6689 Q312.5275,130.7314 313.8713,130.7314 Q314.4963,130.7314 315.09,130.4658 Q315.6838,130.1845 316.3088,129.6064 L316.3088,132.3252 Z " fill="#000000"/><text fill="#D9B8FF" font-family="Helvetica" font-size="17" lengthAdjust="spacing" textLength="155" x="332.34" y="132.5698">gcp_machine_type</text></g><!--class gcp_network--><g id="elem_gcp_network"><rect codeLine="28" fill="#3D176E" height="39.7891" id="gcp_network" rx="2.5" ry="2.5" style="stroke:#000D19;stroke-width:0.5;" width="149" x="84.34" y="7"/><ellipse cx="99.34" cy="26.8945" fill="#ADD1B2" rx="11" ry="11" style="stroke:#181818;stroke-width:1.0;"/><path d="M102.3088,32.5352 Q101.7306,32.832 101.09,32.9727 Q100.4494,33.1289 99.7463,33.1289 Q97.2463,33.1289 95.9181,31.4883 Q94.6056,29.832 94.6056,26.707 Q94.6056,23.582 95.9181,21.9258 Q97.2463,20.2695 99.7463,20.2695 Q100.4494,20.2695 101.09,20.4258 Q101.7463,20.582 102.3088,20.8789 L102.3088,23.5977 Q101.6838,23.0195 101.09,22.7539 Q100.4963,22.4727 99.8713,22.4727 Q98.5275,22.4727 97.84,23.5508 Q97.1525,24.6133 97.1525,26.707 Q97.1525,28.8008 97.84,29.8789 Q98.5275,30.9414 99.8713,30.9414 Q100.4963,30.9414 101.09,30.6758 Q101.6838,30.3945 102.3088,29.8164 L102.3088,32.5352 Z " fill="#000000"/><text fill="#D9B8FF" font-family="Helvetica" font-size="17" lengthAdjust="spacing" textLength="107" x="118.34" y="32.7798">gcp_network</text></g><!--class gcp_packet_mirroring--><g id="elem_gcp_packet_mirroring"><rect codeLine="30" fill="#3D176E" height="39.7891" id="gcp_packet_mirroring" rx="2.5" ry="2.5" style="stroke:#000D19;stroke-width:0.5;" width="222" x="497.84" y="306.37"/><ellipse cx="512.84" cy="326.2645" fill="#ADD1B2" rx="11" ry="11" style="stroke:#181818;stroke-width:1.0;"/><path d="M515.8088,331.9052 Q515.2306,332.202 514.59,332.3427 Q513.9494,332.4989 513.2463,332.4989 Q510.7463,332.4989 509.4181,330.8583 Q508.1056,329.202 508.1056,326.077 Q508.1056,322.952 509.4181,321.2958 Q510.7463,319.6395 513.2463,319.6395 Q513.9494,319.6395 514.59,319.7958 Q515.2463,319.952 515.8088,320.2489 L515.8088,322.9677 Q515.1838,322.3895 514.59,322.1239 Q513.9963,321.8427 513.3713,321.8427 Q512.0275,321.8427 511.34,322.9208 Q510.6525,323.9833 510.6525,326.077 Q510.6525,328.1708 511.34,329.2489 Q512.0275,330.3114 513.3713,330.3114 Q513.9963,330.3114 514.59,330.0458 Q515.1838,329.7645 515.8088,329.1864 L515.8088,331.9052 Z " fill="#000000"/><text fill="#D9B8FF" font-family="Helvetica" font-size="17" lengthAdjust="spacing" textLength="180" x="531.84" y="332.1498">gcp_packet_mirroring</text></g><!--class gcp_subnetwork--><g id="elem_gcp_subnetwork"><rect codeLine="32" fill="#3D176E" height="39.7891" id="gcp_subnetwork" rx="2.5" ry="2.5" style="stroke:#000D19;stroke-width:0.5;" width="178" x="529.84" y="106.79"/><ellipse cx="544.84" cy="126.6845" fill="#ADD1B2" rx="11" ry="11" style="stroke:#181818;stroke-width:1.0;"/><path d="M547.8088,132.3252 Q547.2306,132.622 546.59,132.7627 Q545.9494,132.9189 545.2463,132.9189 Q542.7463,132.9189 541.4181,131.2783 Q540.1056,129.622 540.1056,126.497 Q540.1056,123.372 541.4181,121.7158 Q542.7463,120.0595 545.2463,120.0595 Q545.9494,120.0595 546.59,120.2158 Q547.2463,120.372 547.8088,120.6689 L547.8088,123.3877 Q547.1838,122.8095 546.59,122.5439 Q545.9963,122.2627 545.3713,122.2627 Q544.0275,122.2627 543.34,123.3408 Q542.6525,124.4033 542.6525,126.497 Q542.6525,128.5908 543.34,129.6689 Q544.0275,130.7314 545.3713,130.7314 Q545.9963,130.7314 546.59,130.4658 Q547.1838,130.1845 547.8088,129.6064 L547.8088,132.3252 Z " fill="#000000"/><text fill="#D9B8FF" font-family="Helvetica" font-size="17" lengthAdjust="spacing" textLength="136" x="563.84" y="132.5698">gcp_subnetwork</text></g><!--class gcp_target_instance--><g id="elem_gcp_target_instance"><rect codeLine="34" fill="#3D176E" height="39.7891" id="gcp_target_instance" rx="2.5" ry="2.5" style="stroke:#000D19;stroke-width:0.5;" width="209" x="54.34" y="106.79"/><ellipse cx="69.34" cy="126.6845" fill="#ADD1B2" rx="11" ry="11" style="stroke:#181818;stroke-width:1.0;"/><path d="M72.3088,132.3252 Q71.7306,132.622 71.09,132.7627 Q70.4494,132.9189 69.7463,132.9189 Q67.2463,132.9189 65.9181,131.2783 Q64.6056,129.622 64.6056,126.497 Q64.6056,123.372 65.9181,121.7158 Q67.2463,120.0595 69.7463,120.0595 Q70.4494,120.0595 71.09,120.2158 Q71.7463,120.372 72.3088,120.6689 L72.3088,123.3877 Q71.6838,122.8095 71.09,122.5439 Q70.4963,122.2627 69.8713,122.2627 Q68.5275,122.2627 67.84,123.3408 Q67.1525,124.4033 67.1525,126.497 Q67.1525,128.5908 67.84,129.6689 Q68.5275,130.7314 69.8713,130.7314 Q70.4963,130.7314 71.09,130.4658 Q71.6838,130.1845 72.3088,129.6064 L72.3088,132.3252 Z " fill="#000000"/><text fill="#D9B8FF" font-family="Helvetica" font-size="17" lengthAdjust="spacing" textLength="167" x="88.34" y="132.5698">gcp_target_instance</text></g><!--link gcp_instance to gcp_disk--><g id="link_gcp_instance_gcp_disk"><path codeLine="36" d="M396.84,246.8 C396.84,262.07 396.84,283.5 396.84,300.11 " fill="none" id="gcp_instance-to-gcp_disk" style="stroke:#1A83AF;stroke-width:2.0;"/><polygon fill="#1A83AF" points="396.84,304.99,400.84,295.99,396.84,299.99,392.84,295.99,396.84,304.99" style="stroke:#1A83AF;stroke-width:2.0;"/></g><!--link gcp_instance to gcp_packet_mirroring--><g id="link_gcp_instance_gcp_packet_mirroring"><path codeLine="37" d="M438.72,246.8 C474.15,263.14 524.88,286.54 561.71,303.53 " fill="none" id="gcp_instance-to-gcp_packet_mirroring" style="stroke:#1A83AF;stroke-width:2.0;"/><polygon fill="#1A83AF" points="566.04,305.99,559.549,298.5828,561.5015,303.892,556.1922,305.8444,566.04,305.99" style="stroke:#1A83AF;stroke-width:2.0;"/></g><!--link gcp_machine_type to gcp_instance--><g id="link_gcp_machine_type_gcp_instance"><path codeLine="38" d="M396.84,147.01 C396.84,162.28 396.84,183.71 396.84,200.32 " fill="none" id="gcp_machine_type-to-gcp_instance" style="stroke:#1A83AF;stroke-width:2.0;"/><polygon fill="#1A83AF" points="396.84,205.2,400.84,196.2,396.84,200.2,392.84,196.2,396.84,205.2" style="stroke:#1A83AF;stroke-width:2.0;"/></g><!--link gcp_network to gcp_instance--><g id="link_gcp_network_gcp_instance"><path codeLine="39" d="M113.22,47.22 C66.88,69.57 6,108.25 36.84,146.58 C71.22,189.31 220.96,210.19 316.16,219.32 " fill="none" id="gcp_network-to-gcp_instance" style="stroke:#1A83AF;stroke-width:2.0;"/><polygon fill="#1A83AF" points="321.07,219.88,312.4878,215.0482,316.0923,219.408,311.7326,223.0125,321.07,219.88" style="stroke:#1A83AF;stroke-width:2.0;"/></g><!--link gcp_network to gcp_subnetwork--><g id="link_gcp_network_gcp_subnetwork"><path codeLine="40" d="M233.77,43.83 C312.79,60.62 437.5,87.14 523.48,105.42 " fill="none" id="gcp_network-to-gcp_subnetwork" style="stroke:#1A83AF;stroke-width:2.0;"/><polygon fill="#1A83AF" points="528.34,106.66,520.3733,100.8694,523.4502,105.6163,518.7033,108.6931,528.34,106.66" style="stroke:#1A83AF;stroke-width:2.0;"/></g><!--link gcp_network to gcp_target_instance--><g id="link_gcp_network_gcp_target_instance"><path codeLine="41" d="M158.84,47.22 C158.84,62.49 158.84,83.92 158.84,100.53 " fill="none" id="gcp_network-to-gcp_target_instance" style="stroke:#1A83AF;stroke-width:2.0;"/><polygon fill="#1A83AF" points="158.84,105.41,162.84,96.41,158.84,100.41,154.84,96.41,158.84,105.41" style="stroke:#1A83AF;stroke-width:2.0;"/></g><!--link gcp_subnetwork to gcp_instance--><g id="link_gcp_subnetwork_gcp_instance"><path codeLine="42" d="M574.98,147.01 C537.73,163.41 484.33,186.94 445.72,203.95 " fill="none" id="gcp_subnetwork-to-gcp_instance" style="stroke:#1A83AF;stroke-width:2.0;"/><polygon fill="#1A83AF" points="441.61,206.2,451.4588,206.2315,446.1855,204.1839,448.2331,198.9106,441.61,206.2" style="stroke:#1A83AF;stroke-width:2.0;"/></g><!--link gcp_subnetwork to gcp_packet_mirroring--><g id="link_gcp_subnetwork_gcp_packet_mirroring"><path codeLine="43" d="M617.86,146.99 C616.04,182.99 612.13,260.34 610.1,300.27 " fill="none" id="gcp_subnetwork-to-gcp_packet_mirroring" style="stroke:#1A83AF;stroke-width:2.0;"/><polygon fill="#1A83AF" points="609.82,304.88,614.2783,296.098,610.0775,299.8866,606.2889,295.6859,609.82,304.88" style="stroke:#1A83AF;stroke-width:2.0;"/></g><!--link gcp_target_instance to gcp_instance--><g id="link_gcp_target_instance_gcp_instance"><path codeLine="44" d="M205.86,147.01 C245.79,163.41 303.05,186.94 344.44,203.95 " fill="none" id="gcp_target_instance-to-gcp_instance" style="stroke:#1A83AF;stroke-width:2.0;"/><polygon fill="#1A83AF" points="348.92,206.2,342.1209,199.0745,344.2966,204.2963,339.0749,206.472,348.92,206.2" style="stroke:#1A83AF;stroke-width:2.0;"/></g><!--SRC=[dP91Qy9048Nl-HKBdWLJQTLB8GhINgJKtagHJNOsMPBiXjcnOal_UvDQxMQZ4NgTz-sRzuRDb006PKLxLa8P0zh0vafN77d98aIpMvZ281j8oULuuejBe-agiE8bi0Sete5KmdtY9LD9hi5QTkD8SvxaAPgj5WTxGgvjBO4cXreKtDg825My9N32Y5aybT8dVTF1M8IJE-XW1WNWBp8QZKGuyv6hgtfxduYr-W0MkaTR6O9EpCwA7wetPKCu8Jj5Z_h5Z4zS2ALJTklCdW-PK0EsvkkC2xDhQCaBwwwn10Y6zXKiEgrWDXLoSXP-l0GdpULOcbGReMpEFeClPwIq9QuJyCObJpAbOTCOUv86sXdqVQfwET2cLFNtnAPLMxRR-FmxufZMxrenMhc6huCmcewZvTlm_bJY2kA72JgLEa-EPe5RyP_KNzb-pkiUU8Vgtzu7dktlN_gY_JS0]--></g></svg>

<svg xmlns="http://www.w3.org/2000/svg" width="726" height="352" preserveAspectRatio="none" style="width:726px;height:352px"><rect width="112" height="39.789" x="340.84" y="306.37" fill="#3D176E" rx="2.5" ry="2.5" style="stroke:#000d19;stroke-width:.5"/><circle cx="355.84" cy="326.264" r="11" fill="#ADD1B2" style="stroke:#181818;stroke-width:1"/><path d="M358.809 331.905q-.578.297-1.219.438-.64.156-1.344.156-2.5 0-3.828-1.64-1.312-1.657-1.312-4.782t1.312-4.781q1.328-1.656 3.828-1.656.703 0 1.344.156.656.156 1.219.453v2.719q-.625-.579-1.219-.844-.594-.281-1.219-.281-1.344 0-2.031 1.078-.688 1.062-.688 3.156 0 2.094.688 3.172.688 1.062 2.031 1.062.625 0 1.219-.265.594-.281 1.219-.86v2.72Z"/><text x="374.84" y="332.15" fill="#D9B8FF" font-family="Helvetica" font-size="17" textLength="70">gcp_disk</text><rect width="149" height="39.789" x="322.34" y="206.58" fill="#3D176E" rx="2.5" ry="2.5" style="stroke:#000d19;stroke-width:.5"/><circle cx="337.34" cy="226.475" r="11" fill="#ADD1B2" style="stroke:#181818;stroke-width:1"/><path d="M340.309 232.115q-.578.297-1.219.438-.64.156-1.344.156-2.5 0-3.828-1.64-1.312-1.657-1.312-4.782t1.312-4.781q1.328-1.656 3.828-1.656.703 0 1.344.156.656.156 1.219.453v2.719q-.625-.578-1.219-.844-.594-.281-1.219-.281-1.344 0-2.031 1.078-.688 1.062-.688 3.156 0 2.094.688 3.172.688 1.062 2.031 1.062.625 0 1.219-.265.594-.281 1.219-.86v2.72Z"/><text x="356.34" y="232.36" fill="#D9B8FF" font-family="Helvetica" font-size="17" textLength="107">gcp_instance</text><rect width="197" height="39.789" x="298.34" y="106.79" fill="#3D176E" rx="2.5" ry="2.5" style="stroke:#000d19;stroke-width:.5"/><circle cx="313.34" cy="126.684" r="11" fill="#ADD1B2" style="stroke:#181818;stroke-width:1"/><path d="M316.309 132.325q-.578.297-1.219.438-.64.156-1.344.156-2.5 0-3.828-1.64-1.312-1.657-1.312-4.782t1.312-4.781q1.328-1.656 3.828-1.656.703 0 1.344.156.656.156 1.219.453v2.719q-.625-.579-1.219-.844-.594-.281-1.219-.281-1.344 0-2.031 1.078-.688 1.062-.688 3.156 0 2.094.688 3.172.688 1.062 2.031 1.062.625 0 1.219-.265.594-.281 1.219-.86v2.72Z"/><text x="332.34" y="132.57" fill="#D9B8FF" font-family="Helvetica" font-size="17" textLength="155">gcp_machine_type</text><rect width="149" height="39.789" x="84.34" y="7" fill="#3D176E" rx="2.5" ry="2.5" style="stroke:#000d19;stroke-width:.5"/><circle cx="99.34" cy="26.895" r="11" fill="#ADD1B2" style="stroke:#181818;stroke-width:1"/><path d="M102.309 32.535q-.578.297-1.219.438-.64.156-1.344.156-2.5 0-3.828-1.64-1.312-1.657-1.312-4.782t1.312-4.781q1.328-1.656 3.828-1.656.703 0 1.344.156.656.156 1.219.453v2.719q-.625-.578-1.219-.844-.594-.281-1.219-.281-1.343 0-2.031 1.078-.688 1.062-.688 3.156 0 2.094.688 3.172.688 1.062 2.031 1.062.625 0 1.219-.265.594-.281 1.219-.86v2.72Z"/><text x="118.34" y="32.78" fill="#D9B8FF" font-family="Helvetica" font-size="17" textLength="107">gcp_network</text><rect width="222" height="39.789" x="497.84" y="306.37" fill="#3D176E" rx="2.5" ry="2.5" style="stroke:#000d19;stroke-width:.5"/><circle cx="512.84" cy="326.264" r="11" fill="#ADD1B2" style="stroke:#181818;stroke-width:1"/><path d="M515.809 331.905q-.578.297-1.219.438-.64.156-1.344.156-2.5 0-3.828-1.64-1.312-1.657-1.312-4.782t1.312-4.781q1.328-1.656 3.828-1.656.703 0 1.344.156.656.156 1.219.453v2.719q-.625-.579-1.219-.844-.594-.281-1.219-.281-1.343 0-2.031 1.078-.688 1.062-.688 3.156 0 2.094.688 3.172.688 1.062 2.031 1.062.625 0 1.219-.265.594-.281 1.219-.86v2.72Z"/><text x="531.84" y="332.15" fill="#D9B8FF" font-family="Helvetica" font-size="17" textLength="180">gcp_packet_mirroring</text><rect width="178" height="39.789" x="529.84" y="106.79" fill="#3D176E" rx="2.5" ry="2.5" style="stroke:#000d19;stroke-width:.5"/><circle cx="544.84" cy="126.684" r="11" fill="#ADD1B2" style="stroke:#181818;stroke-width:1"/><path d="M547.809 132.325q-.578.297-1.219.438-.64.156-1.344.156-2.5 0-3.828-1.64-1.312-1.657-1.312-4.782t1.312-4.781q1.328-1.656 3.828-1.656.703 0 1.344.156.656.156 1.219.453v2.719q-.625-.579-1.219-.844-.594-.281-1.219-.281-1.343 0-2.031 1.078-.688 1.062-.688 3.156 0 2.094.688 3.172.688 1.062 2.031 1.062.625 0 1.219-.265.594-.281 1.219-.86v2.72Z"/><text x="563.84" y="132.57" fill="#D9B8FF" font-family="Helvetica" font-size="17" textLength="136">gcp_subnetwork</text><rect width="209" height="39.789" x="54.34" y="106.79" fill="#3D176E" rx="2.5" ry="2.5" style="stroke:#000d19;stroke-width:.5"/><circle cx="69.34" cy="126.684" r="11" fill="#ADD1B2" style="stroke:#181818;stroke-width:1"/><path d="M72.309 132.325q-.578.297-1.219.438-.64.156-1.344.156-2.5 0-3.828-1.64-1.312-1.657-1.312-4.782t1.312-4.781q1.328-1.656 3.828-1.656.703 0 1.344.156.656.156 1.219.453v2.719q-.625-.579-1.219-.844-.594-.281-1.219-.281-1.343 0-2.031 1.078-.688 1.062-.688 3.156 0 2.094.688 3.172.688 1.062 2.031 1.062.625 0 1.219-.265.594-.281 1.219-.86v2.72Z"/><text x="88.34" y="132.57" fill="#D9B8FF" font-family="Helvetica" font-size="17" textLength="167">gcp_target_instance</text><path fill="none" d="M396.84 246.8v53.31" style="stroke:#1a83af;stroke-width:2"/><path fill="#1A83AF" d="m396.84 304.99 4-9-4 4-4-4 4 9z" style="stroke:#1a83af;stroke-width:2"/><path fill="none" d="M438.72 246.8c35.43 16.34 86.16 39.74 122.99 56.73" style="stroke:#1a83af;stroke-width:2"/><path fill="#1A83AF" d="m566.04 305.99-6.491-7.407 1.952 5.309-5.309 1.952 9.848.146z" style="stroke:#1a83af;stroke-width:2"/><path fill="none" d="M396.84 147.01v53.31" style="stroke:#1a83af;stroke-width:2"/><path fill="#1A83AF" d="m396.84 205.2 4-9-4 4-4-4 4 9z" style="stroke:#1a83af;stroke-width:2"/><path fill="none" d="M113.22 47.22C66.88 69.57 6 108.25 36.84 146.58c34.38 42.73 184.12 63.61 279.32 72.74" style="stroke:#1a83af;stroke-width:2"/><path fill="#1A83AF" d="m321.07 219.88-8.582-4.832 3.604 4.36-4.36 3.605 9.338-3.133z" style="stroke:#1a83af;stroke-width:2"/><path fill="none" d="M233.77 43.83c79.02 16.79 203.73 43.31 289.71 61.59" style="stroke:#1a83af;stroke-width:2"/><path fill="#1A83AF" d="m528.34 106.66-7.967-5.79 3.077 4.746-4.747 3.077 9.637-2.033z" style="stroke:#1a83af;stroke-width:2"/><path fill="none" d="M158.84 47.22v53.31" style="stroke:#1a83af;stroke-width:2"/><path fill="#1A83AF" d="m158.84 105.41 4-9-4 4-4-4 4 9z" style="stroke:#1a83af;stroke-width:2"/><path fill="none" d="M574.98 147.01c-37.25 16.4-90.65 39.93-129.26 56.94" style="stroke:#1a83af;stroke-width:2"/><path fill="#1A83AF" d="m441.61 206.2 9.849.032-5.274-2.048 2.048-5.273-6.623 7.289z" style="stroke:#1a83af;stroke-width:2"/><path fill="none" d="M617.86 146.99c-1.82 36-5.73 113.35-7.76 153.28" style="stroke:#1a83af;stroke-width:2"/><path fill="#1A83AF" d="m609.82 304.88 4.458-8.782-4.2 3.789-3.79-4.201 3.532 9.194z" style="stroke:#1a83af;stroke-width:2"/><path fill="none" d="M205.86 147.01c39.93 16.4 97.19 39.93 138.58 56.94" style="stroke:#1a83af;stroke-width:2"/><path fill="#1A83AF" d="m348.92 206.2-6.8-7.125 2.177 5.221-5.222 2.176 9.845-.272z" style="stroke:#1a83af;stroke-width:2"/></svg>
